src/static/logos/pusher.svg

<svg width="256" height="350" xmlns="http://www.w3.org/2000/svg" preserveAspectRatio="xMidYMid"><g fill="#3B454A"><path d="M253.598 99.563c-5.969 21.618-11.915 29.455-22.889 41.206-16.786 17.976-37.4 30.166-60.075 39.149-.648.256-1.347.384-2.243.633-.567-4.902-1.917-8.903-1.434-16.151 11.744-5.553 24.336-12.895 33.906-21.688 9.774-8.982 18.357-18.897 22.107-32.026 4.015-14.059 3.138-27.594-5.09-40.127-2.664-4.059-6.205-7.234-10.598-9.313-7.093-3.357-13.911-1.845-20.337 1.813-8.996 5.12-14.567 13.289-18.867 22.399-5.012 10.618-7.536 21.932-8.576 33.559-.839 9.386-1.919 18.815-1.777 28.207.17 11.253 1.073 22.545 2.476 33.717 1.802 14.343 5.966 28.089 11.186 41.608l.886 2.497s38.6-10.858 39.757-11.033c-14.467 34.998-29.338 70.03-43.773 104.952-3.932-2.82-7.775-5.588-11.454-8.227 8.473-21.473 16.741-42.611 25.328-64.369-1.083.131-38.6 11.133-45.859 12.101-6.135-21.401-11.65-45.508-15.445-67.436-3.123-18.043-6.13-47.107-6.13-56.302 0-9.196.685-23.79 2.42-36.46 1.916-13.998 3.614-27.48 12.099-39.04 16.501-22.482 38.682-36.828 67.636-35.492 15.12.698 28.966 7.916 40.291 17.665 9.624 8.286 15.539 18.385 17.786 31.096 1.08 6.593 2.218 15.285-1.331 27.062M0 270.665c4.13-.999 8.599-2.174 12.702-3.273 8.558-2.292 17.081-4.72 25.644-6.995 1.694-.45 2.251-.889 1.548-2.78-5.603-15.068-9.68-30.591-12.49-46.384-3.02-16.969-5.575-34.03-7.896-51.11-1.616-11.894-2.565-23.88-2.155-35.928.706-20.714 2.829-41.179 10.692-60.615 5.522-13.651 13.443-25.505 26.025-33.732 7.802-5.103 17.928-7.92 27.232-8.367-5.323 4.034-12.906 13.875-12.906 13.875-10.97 6.291-13.418 14.74-15.872 21.717-3.986 11.335-5.672 23.121-6.713 35.038-1.287 14.726-1.072 29.448-.421 44.194.838 19.028 2.757 37.92 6.159 56.667 4.914 27.084 11.863 53.63 20.794 79.663.231.673.424 1.359.745 2.392l-37.749 10.627c2 1.513 3.429 2.622 4.887 3.694a7737.626 7737.626 0 0031.543 23.076l-5.154 11.8c-3.538-2.739-6.899-5.473-10.188-8.029-18.273-14.2-38.15-29.393-56.427-43.589v-1.941"/><path d="M175.92 18.174c-7.139 1.331-10.043 2.904-10.043 2.904-7.736-1.161-14.378-3.002-27.466 5.566-7.971 5.953-13.576 14.435-17.786 23.231-7.527 15.729-11.448 32.567-13.309 49.849-1.324 12.297-1.95 24.287-1.135 36.596.889 13.416 1.926 27.032 3.601 40.373 2.39 19.043 6.85 38.011 11.457 56.632 2.786 11.257 6.696 23.751 9.637 34.97 0 0 26.959-7.482 39.947-11.033-13.184 30.629-26.345 61.335-39.464 91.814-26.543-19.795-52.855-39.672-79.573-59.599 4.954-1.326 12.747-3.409 17.155-4.591 5.133-1.376 14.014-4.429 14.014-4.429-6.664-19.625-12.508-40.428-16.658-60.724-3.224-15.773-5.926-31.67-8.286-47.598-2.71-18.288-3.56-36.74-2.882-55.225.83-22.619 4.141-44.76 13.56-65.614 10.119-22.404 25.898-38.965 49.539-47.034 22.048-7.525 43.193-4.971 63.236 6.759 2.579 1.509 4.824 3.591 7.224 5.408-.161.241-5.63.414-12.768 1.745"/><path d="M167.45 115.756c9.838-8.684 15.959-20.136 16.455-33.031.075-1.93-.147-7.646-.544-9.498 0 0 4.779-3.267 7.925-4.78 3.146-1.512 8.772-3.206 8.772-3.206 3.63 15.971.147 31.103-7.993 42.884-6.421 9.295-16.517 17.32-26.125 23.175l1.51-15.544"/></g></svg>

<?xml version="1.0" encoding="UTF-8" standalone="no"?>
<svg width="256px" height="350px" viewBox="0 0 256 350" version="1.1" xmlns="http://www.w3.org/2000/svg" xmlns:xlink="http://www.w3.org/1999/xlink" preserveAspectRatio="xMidYMid">
	<g fill="#3B454A">
		<path d="M253.598,99.563 C247.629,121.181 241.683,129.018 230.709,140.769 C213.923,158.745 193.309,170.935 170.634,179.918 C169.986,180.174 169.287,180.302 168.391,180.551 C167.824,175.649 166.474,171.648 166.957,164.4 C178.701,158.847 191.293,151.505 200.863,142.712 C210.637,133.73 219.22,123.815 222.97,110.686 C226.985,96.627 226.108,83.092 217.88,70.559 C215.216,66.5 211.675,63.325 207.282,61.246 C200.189,57.889 193.371,59.401 186.945,63.059 C177.949,68.179 172.378,76.348 168.078,85.458 C163.066,96.076 160.542,107.39 159.502,119.017 C158.663,128.403 157.583,137.832 157.725,147.224 C157.895,158.477 158.798,169.769 160.201,180.941 C162.003,195.284 166.167,209.03 171.387,222.549 L172.273,225.046 C172.273,225.046 210.873,214.188 212.03,214.013 C197.563,249.011 182.692,284.043 168.257,318.965 C164.325,316.145 160.482,313.377 156.803,310.738 C165.276,289.265 173.544,268.127 182.131,246.369 C181.048,246.5 143.531,257.502 136.272,258.47 C130.137,237.069 124.622,212.962 120.827,191.034 C117.704,172.991 114.697,143.927 114.697,134.732 C114.697,125.536 115.382,110.942 117.117,98.272 C119.033,84.274 120.731,70.792 129.216,59.232 C145.717,36.75 167.898,22.404 196.852,23.74 C211.972,24.438 225.818,31.656 237.143,41.405 C246.767,49.691 252.682,59.79 254.929,72.501 C256.009,79.094 257.147,87.786 253.598,99.563"></path>
		<path d="M0,270.665 C4.13,269.666 8.599,268.491 12.702,267.392 C21.26,265.1 29.783,262.672 38.346,260.397 C40.04,259.947 40.597,259.508 39.894,257.617 C34.291,242.549 30.214,227.026 27.404,211.233 C24.384,194.264 21.829,177.203 19.508,160.123 C17.892,148.229 16.943,136.243 17.353,124.195 C18.059,103.481 20.182,83.016 28.045,63.58 C33.567,49.929 41.488,38.075 54.07,29.848 C61.872,24.745 71.998,21.928 81.302,21.481 C75.979,25.515 68.396,35.356 68.396,35.356 C57.426,41.647 54.978,50.096 52.524,57.073 C48.538,68.408 46.852,80.194 45.811,92.111 C44.524,106.837 44.739,121.559 45.39,136.305 C46.228,155.333 48.147,174.225 51.549,192.972 C56.463,220.056 63.412,246.602 72.343,272.635 C72.574,273.308 72.767,273.994 73.088,275.027 C60.613,278.539 48.288,282.009 35.339,285.654 C37.339,287.167 38.768,288.276 40.226,289.348 C50.101,296.607 61.855,305.218 71.769,312.424 L66.615,324.224 C63.077,321.485 59.716,318.751 56.427,316.195 C38.154,301.995 18.277,286.802 0,272.606 L0,270.665"></path>
		<path d="M175.92,18.174 C168.781,19.505 165.877,21.078 165.877,21.078 C158.141,19.917 151.499,18.076 138.411,26.644 C130.44,32.597 124.835,41.079 120.625,49.875 C113.098,65.604 109.177,82.442 107.316,99.724 C105.992,112.021 105.366,124.011 106.181,136.32 C107.07,149.736 108.107,163.352 109.782,176.693 C112.172,195.736 116.632,214.704 121.239,233.325 C124.025,244.582 127.935,257.076 130.876,268.295 C130.876,268.295 157.835,260.813 170.823,257.262 C157.639,287.891 144.478,318.597 131.359,349.076 C104.816,329.281 78.504,309.404 51.786,289.477 C56.74,288.151 64.533,286.068 68.941,284.886 C74.074,283.51 82.955,280.457 82.955,280.457 C76.291,260.832 70.447,240.029 66.297,219.733 C63.073,203.96 60.371,188.063 58.011,172.135 C55.301,153.847 54.451,135.395 55.129,116.91 C55.959,94.291 59.27,72.15 68.689,51.296 C78.808,28.892 94.587,12.331 118.228,4.262 C140.276,-3.263 161.421,-0.709 181.464,11.021 C184.043,12.53 186.288,14.612 188.688,16.429 C188.527,16.67 183.058,16.843 175.92,18.174"></path>
		<path d="M167.45,115.756 C177.288,107.072 183.409,95.62 183.905,82.725 C183.98,80.795 183.758,75.079 183.361,73.227 C183.361,73.227 188.14,69.96 191.286,68.447 C194.432,66.935 200.058,65.241 200.058,65.241 C203.688,81.212 200.205,96.344 192.065,108.125 C185.644,117.42 175.548,125.445 165.94,131.3 L167.45,115.756"></path>
	</g>
</svg>
